src/assets/images/expertise/react.svg

<?xml version="1.0" encoding="utf-8"?>
<svg width="89" height="79" viewBox="0 0 89 79" fill="none" xmlns="http://www.w3.org/2000/svg">
<path opacity="0.6" fill-rule="evenodd" clip-rule="evenodd" d="M58.7096 5.19854C55.9512 6.20763 52.6791 8.2064 49.2429 11.1859C48.5724 11.7672 47.8965 12.3843 47.2174 13.0351C49.7492 15.7543 52.2537 18.8789 54.6551 22.2852C58.8339 22.6753 62.7994 23.3029 66.4312 24.1359C66.5746 23.55 66.7052 22.9725 66.8227 22.4042C67.8071 17.6432 67.9407 13.5617 67.4242 10.4846C66.8956 7.33584 65.7607 5.60545 64.5807 4.92745L64.5791 4.92651L64.5774 4.92557C63.4669 4.28443 61.5315 4.16624 58.7096 5.19854ZM65.4204 27.7475C62.9088 27.1778 60.2163 26.7076 57.3872 26.3515C58.3021 27.7793 59.1963 29.2439 60.0649 30.7375C60.9477 32.2563 61.795 33.7821 62.6008 35.3061C63.7128 32.7122 64.66 30.1767 65.4204 27.7475ZM64.7786 39.6364C66.5237 35.8912 67.9756 32.1974 69.0659 28.6805C69.9667 28.9394 70.8369 29.2122 71.6737 29.498C75.9822 30.975 79.353 32.8001 81.6073 34.6757C83.9131 36.5941 84.7788 38.3235 84.7788 39.6025C84.7788 40.9593 83.8419 42.8009 81.3678 44.8292C78.9501 46.8112 75.3343 48.7349 70.7023 50.2688M60.6091 39.6538C59.4529 37.3264 58.181 34.9703 56.8121 32.6151C55.4489 30.271 54.0275 28.012 52.5686 25.8673C49.9687 25.6698 47.2829 25.5662 44.5411 25.5662C41.8114 25.5662 39.127 25.6691 36.5229 25.8651C35.0548 28.0074 33.6261 30.2704 32.2604 32.633C30.8973 34.9886 29.6457 37.357 28.5155 39.7018C29.6457 42.0404 30.9002 44.4059 32.2725 46.768C33.6449 49.1298 35.0844 51.4003 36.5648 53.554C39.1507 53.7212 41.8182 53.8041 44.533 53.8041C47.2845 53.8041 49.9907 53.7088 52.6141 53.5215C54.0556 51.3692 55.4645 49.1039 56.8248 46.756C58.1966 44.3856 59.4633 42.007 60.6091 39.6538ZM57.391 53.0677C58.3081 51.6208 59.2059 50.1381 60.0806 48.6282C60.9747 47.0834 61.8287 45.5297 62.6369 43.9772C63.8015 46.6216 64.7948 49.2029 65.5874 51.6753C63.0347 52.2555 60.2834 52.7214 57.391 53.0677ZM49.8661 57.4317C48.1083 57.5101 46.3272 57.5494 44.533 57.5494C42.8015 57.5494 41.0818 57.5166 39.383 57.45C41.1324 59.747 42.9145 61.8686 44.6895 63.7761C46.4288 61.8685 48.1625 59.7381 49.8661 57.4317ZM47.3246 66.4555C49.8466 63.7071 52.3286 60.5473 54.7116 57.1111C58.9317 56.7377 62.9519 56.1266 66.6187 55.282C66.7989 56.0056 66.9586 56.7167 67.0972 57.4139C68.0137 62.0253 68.0785 65.9911 67.5208 68.9863C66.9507 72.0481 65.8056 73.756 64.6404 74.4294M70.2554 54.3323C70.8094 54.169 71.3526 53.9996 71.8845 53.8241L71.8862 53.8235C76.8165 52.1911 80.8826 50.0772 83.7564 47.7213C86.5741 45.4113 88.5381 42.6142 88.5381 39.6025C88.5381 36.6905 86.6708 34.009 84.0169 31.801C81.3115 29.5501 77.4957 27.5331 72.8969 25.9566L72.895 25.9559C71.9868 25.6456 71.0447 25.3506 70.0716 25.0716C70.2302 24.426 70.3747 23.7884 70.5047 23.1598C71.5528 18.0907 71.7461 13.5249 71.132 9.86678C70.53 6.28087 69.0772 3.1884 66.4603 1.68388C63.9272 0.222695 60.6598 0.495341 57.4138 1.68278C54.1036 2.89374 50.4423 5.18078 46.7749 8.36074C46.0471 8.99171 45.3157 9.6599 44.5828 10.3632C44.097 9.8998 43.6111 9.45278 43.1257 9.023C39.2412 5.58669 35.3667 3.13886 31.8788 1.84115C28.4591 0.568868 25.0439 0.277177 22.428 1.78253L22.4263 1.78348L22.4246 1.78444C19.8952 3.24686 18.5033 6.2031 17.9164 9.59922C17.318 13.0613 17.4786 17.3628 18.4119 22.1169C18.5979 23.0632 18.8147 24.0317 19.0615 25.0187C17.9323 25.3373 16.8457 25.6772 15.8068 26.0373L15.8053 26.0378C11.2672 27.6151 7.5388 29.6255 4.9067 31.8691C2.31686 34.0767 0.538086 36.7376 0.538086 39.6086C0.538086 42.5537 2.41327 45.3462 5.13556 47.6697C7.91042 50.038 11.8419 52.1699 16.6236 53.7907C17.3961 54.0538 18.1934 54.3023 19.0133 54.5364C18.7462 55.6078 18.5149 56.6555 18.3208 57.6753C17.4242 62.3839 17.3092 66.606 17.9451 69.9976C18.5708 73.3353 19.9962 76.197 22.4918 77.6308C25.0517 79.1006 28.415 78.8753 31.7948 77.6859C35.2404 76.4734 39.0613 74.1453 42.8691 70.8296C43.4821 70.2954 44.0952 69.7324 44.7068 69.1434C45.5035 69.9075 46.2977 70.629 47.0862 71.3046C50.7281 74.4283 54.3418 76.6353 57.6096 77.7805C60.8249 78.9073 64.027 79.1075 66.5207 77.6726L66.5225 77.6715C69.0795 76.1962 70.5632 73.1808 71.217 69.6694C71.8836 66.0896 71.7672 61.6289 70.7849 56.6865C70.6314 55.9144 70.4546 55.1291 70.2554 54.3323ZM69.2299 50.7288C68.099 47.1647 66.5854 43.4272 64.7786 39.6364L69.2299 50.7288ZM70.7023 50.2688C70.2224 50.4272 69.7312 50.5806 69.2299 50.7288L70.7023 50.2688ZM42.0721 66.4718C39.5104 63.7338 36.9555 60.5942 34.506 57.1596C30.3158 56.8211 26.3172 56.2578 22.6584 55.4527C22.4093 56.4526 22.1942 57.4274 22.0143 58.3732C21.1761 62.7747 21.1148 66.5063 21.6405 69.31C22.1761 72.1671 23.2496 73.7425 24.3694 74.3862C25.5364 75.0562 27.5939 75.1921 30.5428 74.1544C33.4258 73.1399 36.8419 71.1036 40.3946 68.01C40.9525 67.5239 41.512 67.0106 42.0721 66.4718ZM23.6728 51.8401C26.1996 52.3876 28.9176 52.8189 31.7737 53.1361C30.8305 51.6774 29.9101 50.1779 29.019 48.6444C28.1414 47.1337 27.3084 45.6184 26.5224 44.1061C25.3994 46.7613 24.4449 49.3571 23.6728 51.8401ZM26.5187 35.2964C27.3026 33.783 28.1317 32.2691 29.0032 30.7631C29.8766 29.2521 30.7766 27.7776 31.6979 26.3448C28.8927 26.6937 26.2172 27.153 23.7213 27.7088C24.4813 30.1484 25.417 32.6925 26.5187 35.2964ZM20.0712 28.6263C21.1663 32.175 22.6074 35.9072 24.3614 39.7036C22.5888 43.548 21.1273 47.3361 20.0211 50.9282C19.2701 50.7132 18.5418 50.4859 17.8381 50.2462L17.8355 50.2454C13.3764 48.734 9.90211 46.8062 7.58132 44.8254C5.20774 42.7995 4.29737 40.9533 4.29737 39.6086C4.29737 38.3208 5.13207 36.6061 7.35066 34.7149C9.52671 32.8601 12.8012 31.0487 17.042 29.5746C18.0056 29.2407 19.0169 28.9241 20.0712 28.6263ZM22.7053 24.0976C26.3304 23.2805 30.2895 22.6645 34.4463 22.2807C36.8748 18.8663 39.4053 15.7552 41.9486 13.0356C41.5076 12.6158 41.0676 12.2114 40.629 11.823C36.9807 8.59567 33.498 6.44152 30.5636 5.34976C27.5623 4.23313 25.49 4.34668 24.3099 5.02469C23.1981 5.66846 22.1311 7.28429 21.6211 10.2348C21.1223 13.1207 21.2268 16.943 22.1012 21.3976C22.2738 22.2758 22.4754 23.1767 22.7053 24.0976ZM44.583 15.7131C42.8326 17.5937 41.0789 19.6801 39.357 21.941C41.0649 21.8616 42.7958 21.821 44.5411 21.821C46.3025 21.821 48.045 21.8623 49.7612 21.943C48.0565 19.6801 46.3202 17.5891 44.583 15.7131ZM47.3246 66.4555C48.0682 67.1682 48.8071 67.8393 49.5382 68.4657C52.9411 71.3845 56.1553 73.3006 58.857 74.2474C61.611 75.2125 63.5206 75.0738 64.6404 74.4294M44.5411 33.6558C41.239 33.6558 38.5621 36.3228 38.5621 39.6126C38.5621 42.9024 41.239 45.5694 44.5411 45.5694C47.8432 45.5694 50.5201 42.9024 50.5201 39.6126C50.5201 36.3228 47.8432 33.6558 44.5411 33.6558ZM34.8028 39.6126C34.8028 34.2543 39.1628 29.9105 44.5411 29.9105C49.9194 29.9105 54.2794 34.2543 54.2794 39.6126C54.2794 44.9709 49.9194 49.3146 44.5411 49.3146C39.1628 49.3146 34.8028 44.9709 34.8028 39.6126Z" fill="#1F3D56"/>
</svg>

<svg width="89" height="79" fill="none" xmlns="http://www.w3.org/2000/svg"><path opacity=".6" fill-rule="evenodd" clip-rule="evenodd" d="M58.71 5.199c-2.759 1.009-6.03 3.007-9.467 5.987a55.07 55.07 0 00-2.026 1.85c2.532 2.718 5.037 5.843 7.438 9.25 4.179.39 8.144 1.017 11.776 1.85a49.14 49.14 0 00.392-1.732c.984-4.76 1.118-8.842.601-11.92-.528-3.148-1.663-4.879-2.843-5.557h-.002l-.002-.001c-1.11-.642-3.045-.76-5.867.273zm6.71 22.548a83.681 83.681 0 00-8.033-1.395c.915 1.427 1.81 2.892 2.678 4.386.883 1.518 1.73 3.044 2.536 4.568a79.797 79.797 0 002.82-7.558zm-.641 11.89c1.745-3.746 3.197-7.44 4.287-10.957.9.26 1.77.532 2.608.818 4.308 1.477 7.679 3.302 9.933 5.178 2.306 1.918 3.172 3.648 3.172 4.926 0 1.357-.937 3.199-3.411 5.227-2.418 1.982-6.034 3.906-10.666 5.44M60.61 39.654a122.545 122.545 0 00-3.797-7.039 113.184 113.184 0 00-4.243-6.748c-2.6-.197-5.286-.3-8.028-.3-2.73 0-5.414.102-8.018.298a104.528 104.528 0 00-4.263 6.768 106.281 106.281 0 00-3.744 7.069 106.146 106.146 0 008.05 13.852c2.585.167 5.252.25 7.967.25 2.752 0 5.458-.095 8.081-.282a122.872 122.872 0 004.21-6.766 112.829 112.829 0 003.785-7.102zm-3.218 13.414c.917-1.447 1.815-2.93 2.69-4.44a118.876 118.876 0 002.556-4.65c1.164 2.644 2.158 5.225 2.95 7.697a80.139 80.139 0 01-8.196 1.393zm-7.525 4.364a119.8 119.8 0 01-5.333.117c-1.732 0-3.451-.032-5.15-.099a84.188 84.188 0 005.306 6.326c1.74-1.908 3.474-4.038 5.177-6.344zm-2.541 9.023c2.522-2.748 5.004-5.908 7.387-9.344 4.22-.373 8.24-.984 11.907-1.829.18.724.34 1.435.478 2.132.917 4.611.982 8.577.424 11.572-.57 3.062-1.715 4.77-2.88 5.443m5.614-20.097a53.257 53.257 0 001.63-.508h.001c4.93-1.633 8.997-3.747 11.87-6.103 2.818-2.31 4.782-5.107 4.782-8.118 0-2.913-1.867-5.594-4.521-7.802-2.706-2.25-6.521-4.268-11.12-5.844l-.002-.001c-.908-.31-1.85-.605-2.823-.884.158-.646.303-1.284.433-1.912 1.048-5.07 1.241-9.635.627-13.293-.602-3.586-2.055-6.679-4.672-8.183-2.533-1.461-5.8-1.189-9.046-.001-3.31 1.21-6.972 3.498-10.64 6.678a58.81 58.81 0 00-2.191 2.002 53.38 53.38 0 00-1.457-1.34c-3.885-3.436-7.76-5.884-11.247-7.182-3.42-1.272-6.835-1.564-9.451-.058h-.002l-.001.001c-2.53 1.463-3.922 4.42-4.509 7.815-.598 3.462-.437 7.764.496 12.518.186.946.403 1.915.65 2.902a58.23 58.23 0 00-3.255 1.018h-.002c-4.538 1.578-8.266 3.588-10.898 5.832-2.59 2.208-4.369 4.869-4.369 7.74 0 2.945 1.875 5.737 4.598 8.06 2.774 2.369 6.706 4.5 11.488 6.122.772.263 1.57.511 2.39.745a57.238 57.238 0 00-.693 3.14c-.897 4.708-1.012 8.93-.376 12.322.626 3.337 2.051 6.199 4.547 7.633 2.56 1.47 5.923 1.244 9.303.055 3.445-1.213 7.266-3.54 11.074-6.856a50.177 50.177 0 001.838-1.687c.797.764 1.59 1.486 2.38 2.162 3.641 3.123 7.255 5.33 10.523 6.475 3.215 1.127 6.417 1.328 8.91-.107l.002-.002c2.557-1.475 4.041-4.49 4.695-8.002.667-3.58.55-8.04-.432-12.982a49.557 49.557 0 00-.53-2.355zM69.23 50.73c-1.131-3.564-2.645-7.302-4.451-11.093l4.45 11.093zm1.472-.46c-.48.158-.97.312-1.472.46l1.472-.46zm-28.63 16.203c-2.562-2.738-5.117-5.878-7.566-9.312-4.19-.339-8.189-.902-11.848-1.707-.249 1-.464 1.974-.644 2.92-.838 4.402-.9 8.133-.373 10.937.535 2.857 1.609 4.433 2.728 5.076 1.167.67 3.225.806 6.174-.232 2.883-1.014 6.299-3.05 9.852-6.144.557-.486 1.117-1 1.677-1.538zm-18.4-14.632c2.528.548 5.246.979 8.102 1.296a110.822 110.822 0 01-5.252-9.03 83.95 83.95 0 00-2.85 7.734zm2.847-16.544a110.84 110.84 0 015.179-8.951 85.24 85.24 0 00-7.977 1.364 82.64 82.64 0 002.798 7.587zm-6.448-6.67c1.095 3.549 2.536 7.281 4.29 11.078-1.772 3.844-3.234 7.632-4.34 11.224a46.27 46.27 0 01-2.183-.682h-.003c-4.459-1.512-7.933-3.44-10.254-5.42-2.373-2.026-3.284-3.873-3.284-5.217 0-1.288.835-3.003 3.054-4.894 2.176-1.855 5.45-3.666 9.691-5.14a54.56 54.56 0 013.03-.949zm2.634-4.528c3.625-.817 7.585-1.433 11.741-1.817 2.429-3.415 4.96-6.526 7.503-9.245-.441-.42-.881-.825-1.32-1.213-3.648-3.227-7.131-5.381-10.065-6.473-3.002-1.117-5.074-1.003-6.254-.325-1.112.643-2.179 2.26-2.689 5.21-.499 2.886-.394 6.708.48 11.163.173.878.374 1.779.604 2.7zm21.878-8.385a82.737 82.737 0 00-5.226 6.228 111.71 111.71 0 0110.404.002 80.332 80.332 0 00-5.178-6.23zm2.742 50.743a53.71 53.71 0 002.213 2.01c3.403 2.919 6.617 4.835 9.319 5.781 2.754.966 4.664.827 5.783.182M44.541 33.656c-3.302 0-5.979 2.667-5.979 5.957s2.677 5.956 5.98 5.956c3.301 0 5.978-2.667 5.978-5.956 0-3.29-2.677-5.957-5.979-5.957zm-9.738 5.957c0-5.359 4.36-9.703 9.738-9.703 5.378 0 9.738 4.344 9.738 9.703 0 5.358-4.36 9.702-9.738 9.702-5.378 0-9.738-4.344-9.738-9.702z" fill="#1F3D56"/></svg>
